X:1
T:Mrs Dalzell
T:Mrs Dalzell
T:Nathaniel Gow
C:Nathaniel Gow
L:1/8
M:4/4
K:D
V:1 treble 
V:1
 B |"D" A<F TE>D D2{DE} F>D | D/E/F TE>D"G" B,3 B |"D" A<F TE>D"Bm"{DE} F2 d>D | %4
"Em" F2"A7" TE>D"D" D3 :| A |"D" [Fd]>[Ae] [df][df] [df]2 [Ae][Fd] | %7
 fg/f/ f/e/d/c/"G"{c} B3 A/4B/4c/ |"D" d>e fd"G" TB2 g>f |"A7"{f} e>d c/d/e/f/"D" d3 || A/4B/4c/ | %11
"Bm" d2 FG/A/"G" B2"A7" EF/G/ |"D" A<F TE>D"G"{D} B,3 B |"D" A<F TE>D"Bm"{DE} F2 d>D | %14
"Em"{DE} F2"A7" TE>D"D" D3 |] %15

